X: 135
T: No_91_Song_for_Men_Who_Prepare_Drum_(b).krn
N: Derived from No_91_Song_for_Men_Who_Prepare_Drum_(b).krn
%%abc-version 2.0
%%abcx-abcm2ps-target-version 5.9.1 (29 Sep 2008)
%%abc-creator hum2abc beta
%%abcx-conversion-date 2019/03/15 08:35:45
%%humdrum-veritas 2248963133
%%humdrum-veritas-data 2192098560
%%linebreak <none>
%%barnumbers 0
L: 1/16
M: 2/4
K: B clef=bass
[K:clef=bass][M:2/4]z4z2 CC | 
CCDD C3C | 
C8 | 
B,B,G,G, z2 CC | 
CCDD C3C | 
C8 | 
B,B,G,G, z3 B, | 
G,G,B,B, G,3G, ]|:  
[M:3/4]G,3G, G,2G,2 z2 z C | 
G,G,B,G,F,4D,4 ||  
[M:2/4](3C,2C,2C,2 (3C,2C,2D,2 | 
(3C,2C,2C,2C,4- | 
C,4B,,B,,G,,G,,/ z/ | 
B,,B,,3B,,4 | 
G,,2B,,2 G,,3G,, | 
G,,8 ||  
[M:2/4]G,,2 z2z4 | 
[M:3/8]B,B,G,3G, :|]  



